assets/settings.svg

<svg xmlns="http://www.w3.org/2000/svg" fill="none" viewBox="0 0 28 28">
  <mask id="a" fill="#fff">
    <path fill-rule="evenodd" d="M11.5294 2c0-1.10457.8954-2 2-2h.9412c1.1046 0 2 .895431 2 2v.80329c0 .89898.6449 1.66116 1.4787 1.99714.8161.32882 1.7654.22503 2.3875-.3971l.5186-.51853c.781-.78105 2.0473-.78105 2.8284 0l.6655.66551c.7811.78105.7811 2.04738 0 2.82843l-.719.71897c-.5456.54559-.6525 1.37279-.3756 2.09299.2914.7581.9813 1.3387 1.7935 1.3387H26c1.1046 0 2 .8954 2 2v.9412c0 1.1046-.8954 2-2 2h-1.3328c-.7335 0-1.3715.4877-1.6843 1.1512-.342.7254-.2653 1.6019.3018 2.169l1.0646 1.0646c.7811.781.7811 2.0473 0 2.8284l-.6655.6655c-.7811.7811-2.0474.7811-2.8284 0l-1.5091-1.5091c-.4499-.4498-1.1264-.5547-1.7249-.3391-.6552.236-1.1508.8289-1.1508 1.5253V26c0 1.1046-.8954 2-2 2h-.9412c-1.1046 0-2-.8954-2-2v-2.4813c0-.5399-.3563-1.0116-.8524-1.2247-.5078-.2182-1.10363-.1393-1.49446.2515l-1.8038 1.8038c-.78105.781-2.04738.781-2.82843 0l-.66551-.6655c-.78105-.7811-.78105-2.0474 0-2.8284l1.60331-1.6033c.4686-.4686.54931-1.1874.2781-1.7921-.25717-.5733-.80501-.9894-1.43341-.9894H2c-1.104569 0-2-.8954-2-2v-.9412c0-1.1046.895432-2 2-2h1.97359c.69639 0 1.28932-.4956 1.5253-1.1508.21558-.59852.11074-1.27503-.33911-1.72488L3.8848 7.37875c-.78105-.78105-.78105-2.04738 0-2.82843l.66551-.66551c.78105-.78105 2.04738-.78105 2.82843 0l.83046.83046c.5671.56709 1.44356.64379 2.169.30181.6635-.31277 1.1512-.95075 1.1512-1.68426V2Z" clip-rule="evenodd"/>
  </mask>
  <path fill="#2A2238" d="M8.2092 4.71527 7.14854 5.77593 8.2092 4.71527Zm-3.65889-.83046L3.48965 2.82415l1.06066 1.06066ZM3.8848 7.37875 2.82414 8.43941 3.8848 7.37875Zm0-2.82843L2.82414 3.48966 3.8848 4.55032Zm1.27498 4.1034L4.09912 9.71438l1.06066-1.06066ZM3.8848 20.8554l-1.06066-1.0607 1.06066 1.0607Zm3.49394 3.4939-1.06066-1.0607 1.06066 1.0607Zm-2.82843 0L3.48965 25.41l1.06066-1.0607Zm4.63223-1.8038-1.06066-1.0607 1.06066 1.0607ZM23.6303 8.09771l-1.0606-1.06066 1.0606 1.06066Zm.719-3.5474-1.0607 1.06066 1.0607-1.06066Zm0 2.82843-1.0607-1.06066 1.0607 1.06066ZM20.8554 3.8848l-1.0607-1.06066 1.0607 1.06066Zm2.8284 0 1.0607-1.06066-1.0607 1.06066ZM14.4706-1.5h-.9412v3h.9412v-3Zm3.5 4.30329V2h-3v.80329h3Zm1.8241.02085-.5185.51853 2.1213 2.12132.5185-.51853-2.1213-2.12132Zm5.6153.66551-.6655-.66551-2.1214 2.12132.6655.66551L25.41 3.48965Zm-.719 5.66872.719-.71897-2.1214-2.12132-.7189.71897 2.1213 2.12132ZM26 10.0294h-.9518v3H26v-3Zm3.5 4.4412v-.9412h-3v.9412h3Zm-4.8328 3.5H26v-3h-1.3328v3Zm.7428 1.8241-1.0646-1.0646-2.1213 2.1214 1.0645 1.0645 2.1214-2.1213Zm-.6655 5.6153.6655-.6655-2.1214-2.1214-.6655.6655 2.1214 2.1214Zm-6.4589-1.5091 1.5091 1.5091 2.1213-2.1214-1.5091-1.509-2.1213 2.1213ZM17.9706 26v-1.9736h-3V26h3Zm-4.4412 3.5h.9412v-3h-.9412v3Zm-3.5-5.9813V26h3v-2.4813h-3Zm-1.59 1.8913 1.8038-1.8038-2.12132-2.1214-1.8038 1.8038L8.4394 25.41Zm-5.61526-.6656.66551.6656 2.12132-2.1214-.66551-.6655-2.12132 2.1213Zm1.60331-6.553-1.60331 1.6033 2.12132 2.1213 1.60331-1.6033-2.12132-2.1213ZM2 17.9706h2.3328v-3H2v3Zm-3.5-4.4412v.9412h3v-.9412h-3Zm5.47359-3.5H2v3h1.97359v-3ZM2.82414 8.43941l1.27498 1.27497 2.12132-2.12132-1.27498-1.27497-2.12132 2.12132Zm.66551-5.61526-.66551.66551 2.12132 2.12132.66551-.66551-2.12132-2.12132Zm5.78021.83046-.83046-.83046-2.12132 2.12132.83046.83046 2.12132-2.12132ZM10.0294 2v1.33282h3V2h-3Zm.9884 4.37388c1.0787-.50852 2.0116-1.61437 2.0116-3.04106h-3c0 .02583-.0072.07102-.05231.13497-.04808.06812-.12961.14116-.23853.1925l1.27924 2.71359Zm-3.86926-.59795c1.09601 1.09601 2.68295 1.1572 3.86926.59795L9.73856 3.66029c-.11733.05532-.2327.069-.31923.05824-.0801-.00995-.12308-.03754-.14947-.06392L7.14854 5.77593Zm-1.53757-.83046c.19527-.19527.51185-.19527.70711 0L8.4394 2.82415c-1.36683-1.36684-3.58291-1.36684-4.94975 0l2.12132 2.12132Zm-.66551 1.37262c-.19526-.19527-.19526-.51185 0-.70711L2.82414 3.48966c-1.36683 1.36683-1.36683 3.58291 0 4.94975l2.12132-2.12132Zm1.96469 4.56881c.3819-1.06033.23127-2.37285-.68971-3.29384L4.09912 9.71438c.00001.00002-.00011-.0001-.00032-.00035-.00021-.00024-.00043-.00052-.00063-.0008-.00046-.00063-.0005-.00081-.0002-.00023.00054.00106.00351.0072.00589.0201.00517.02797.0053.07748-.01623.13724l2.82252 1.01656Zm-2.93656 2.1425c1.44249 0 2.52751-1.0068 2.93656-2.1425L4.08763 9.87034c-.02494.06926-.06615.11932-.09925.14506-.02852.0222-.03261.014-.01479.014v3Zm-2.47359.5c0-.2761.22386-.5.5-.5v-3c-1.9329934 0-3.5 1.567-3.5 3.5h3Zm.5 1.4412c-.27614 0-.5-.2239-.5-.5h-3c0 1.933 1.567004 3.5 3.5 3.5v-3Zm5.13485 1.8756c-.45629-1.0173-1.48494-1.8756-2.80205-1.8756v3c-.02464 0-.02972-.0095-.012.0031.02149.0153.05371.0488.07678.1002l2.73727-1.2277Zm-.58608 3.4665c.97538-.9754 1.07121-2.3849.58608-3.4665l-2.73727 1.2277c.02355.0525.02544.0975.02209.121-.00147.0103-.00338.0129-.00191.0099.00182-.0038.00541-.0091.00969-.0134l2.12132 2.1213Zm-1.60331 2.3104c-.19526-.1952-.19526-.5118 0-.7071l-2.12132-2.1213c-1.36683 1.3668-1.36683 3.5829 0 4.9497l2.12132-2.1213Zm1.37262.6655c-.19526.1953-.51184.1953-.70711 0L3.48965 25.41c1.36684 1.3668 3.58292 1.3668 4.94975 0l-2.12132-2.1214Zm4.95102-2.3729c-.9967-.4281-2.26727-.3108-3.14722.5691l2.12132 2.1214c-.0438.0438-.0932.062-.1231.0668-.0137.0021-.0229.0016-.0275.001-.0047-.0006-.007-.0015-.0076-.0018l1.1841-2.7565Zm1.7603 2.603c0-1.2245-.7959-2.1887-1.7603-2.603l-1.1841 2.7565c-.0002-.0001-.0011-.0005-.0032-.0021-.002-.0016-.0073-.0062-.0142-.0159-.0149-.0209-.0382-.0684-.0382-.1355h3Zm.5 2.9813c-.2761 0-.5-.2239-.5-.5h-3c0 1.933 1.567 3.5 3.5 3.5v-3Zm1.4412-.5c0 .2761-.2239.5-.5.5v3c1.933 0 3.5-1.567 3.5-3.5h-3Zm2.1425-4.9101c-1.1357.409-2.1425 1.494-2.1425 2.9365h3c0 .0178-.0081.0137.014-.0148.0257-.0331.0758-.0743.1451-.0992l-1.0166-2.8225Zm3.2938.6897c-.9209-.921-2.2335-1.0716-3.2938-.6897l1.0166 2.8225c.0597-.0216.1092-.0214.1372-.0163.0129.0024.019.0054.0201.0059.0006.0003.0004.0003-.0002-.0002-.0003-.0002-.0006-.0004-.0008-.0006-.0003-.0002-.0004-.0003-.0004-.0003l2.1213-2.1213Zm2.2162 1.509c-.1952.1953-.5118.1953-.7071 0L19.7947 25.41c1.3668 1.3668 3.5829 1.3668 4.9498 0l-2.1214-2.1214Zm.6655-1.3726c.1953.1953.1953.5119 0 .7071l2.1214 2.1214c1.3668-1.3669 1.3668-3.583 0-4.9498l-2.1214 2.1213Zm-1.6625-4.9338c-.5592 1.1863-.498 2.7732.598 3.8693l2.1213-2.1214c-.0264-.0263-.054-.0693-.0639-.1494-.0108-.0866.0029-.2019.0582-.3193l-2.7136-1.2792Zm3.0411-2.0116c-1.4267 0-2.5326.9329-3.0411 2.0116l2.7136 1.2792c.0514-.1089.1244-.1904.1925-.2385.064-.0451.1092-.0523.135-.0523v-3Zm1.8328-.5c0 .2761-.2239.5-.5.5v3c1.933 0 3.5-1.567 3.5-3.5h-3Zm-.5-1.4412c.2761 0 .5.2239.5.5h3c0-1.933-1.567-3.5-3.5-3.5v3Zm-4.1454-2.3004c.4634 1.2053 1.6301 2.3004 3.1936 2.3004v-3c-.0377 0-.0966-.0115-.1748-.0719-.0831-.06427-.1668-.17028-.2186-.30509L21.8546 10.729Zm.7151-3.69195c-1.0386 1.03856-1.1645 2.52306-.7151 3.69195l2.8002-1.07659c-.0478-.12413-.0553-.24113-.0408-.32911.0136-.08248.0441-.13203.077-.16493l-2.1213-2.12132Zm.7189-1.42608c.1953.19526.1953.51185 0 .70711L25.41 8.4394c1.3668-1.36684 1.3668-3.58291 0-4.94975l-2.1214 2.12132Zm-1.3726-.66551c.1953-.19526.5119-.19526.7071 0l2.1214-2.12132c-1.3669-1.36684-3.583-1.36684-4.9498 0l2.1213 2.12132Zm-4.5273 1.24627c1.2533.50501 2.8764.40461 4.0088-.72774l-2.1213-2.12132c-.1119.11192-.3875.2191-.7663.06645l-1.1212 2.78261Zm-2.4181-3.38844c0 1.65371 1.1618 2.88224 2.4181 3.38844l1.1212-2.78261c-.1832-.07381-.3308-.19002-.4239-.31098-.089-.11563-.1154-.21563-.1154-.29485h-3ZM13.5294-1.5c-1.933 0-3.5 1.5670026-3.5 3.5h3c0-.27614.2239-.5.5-.5v-3Zm.9412 3c.2761 0 .5.22386.5.5h3c0-1.9329959-1.567-3.5-3.5-3.5v3Z" mask="url(#a)"/>
  <circle cx="14.4118" cy="13.5882" r="5.42647" stroke="#2A2238" stroke-width="1.5"/>
</svg>

<svg width="28" height="28" viewBox="0 0 28 28" fill="none" xmlns="http://www.w3.org/2000/svg">
<mask id="path-1-inside-1_31_178" fill="white">
<path fill-rule="evenodd" clip-rule="evenodd" d="M11.5294 2C11.5294 0.89543 12.4248 0 13.5294 0H14.4706C15.5752 0 16.4706 0.895431 16.4706 2V2.80329C16.4706 3.70227 17.1155 4.46445 17.9493 4.80043V4.80043C18.7654 5.12925 19.7147 5.02546 20.3368 4.40333L20.8554 3.8848C21.6364 3.10375 22.9027 3.10375 23.6838 3.8848L24.3493 4.55031C25.1304 5.33136 25.1304 6.59769 24.3493 7.37874L23.6303 8.09771C23.0847 8.6433 22.9778 9.4705 23.2547 10.1907V10.1907C23.5461 10.9488 24.236 11.5294 25.0482 11.5294H26C27.1046 11.5294 28 12.4248 28 13.5294V14.4706C28 15.5752 27.1046 16.4706 26 16.4706H24.6672C23.9337 16.4706 23.2957 16.9583 22.9829 17.6218V17.6218C22.6409 18.3472 22.7176 19.2237 23.2847 19.7908L24.3493 20.8554C25.1304 21.6364 25.1304 22.9027 24.3493 23.6838L23.6838 24.3493C22.9027 25.1304 21.6364 25.1304 20.8554 24.3493L19.3463 22.8402C18.8964 22.3904 18.2199 22.2855 17.6214 22.5011V22.5011C16.9662 22.7371 16.4706 23.33 16.4706 24.0264V26C16.4706 27.1046 15.5752 28 14.4706 28H13.5294C12.4248 28 11.5294 27.1046 11.5294 26V23.5187C11.5294 22.9788 11.1731 22.5071 10.677 22.294V22.294C10.1692 22.0758 9.57337 22.1547 9.18254 22.5455L7.37874 24.3493C6.59769 25.1303 5.33136 25.1303 4.55031 24.3493L3.8848 23.6838C3.10375 22.9027 3.10375 21.6364 3.8848 20.8554L5.48811 19.2521C5.95671 18.7835 6.03742 18.0647 5.76621 17.46V17.46C5.50904 16.8867 4.9612 16.4706 4.3328 16.4706H2C0.895431 16.4706 0 15.5752 0 14.4706V13.5294C0 12.4248 0.895432 11.5294 2 11.5294H3.97359C4.66998 11.5294 5.26291 11.0338 5.49889 10.3786V10.3786C5.71447 9.78008 5.60963 9.10357 5.15978 8.65372L3.8848 7.37875C3.10375 6.5977 3.10375 5.33137 3.8848 4.55032L4.55031 3.88481C5.33136 3.10376 6.59769 3.10376 7.37874 3.88481L8.2092 4.71527C8.7763 5.28236 9.65276 5.35906 10.3782 5.01708V5.01708C11.0417 4.70431 11.5294 4.06633 11.5294 3.33282V2Z"/>
</mask>
<path d="M8.2092 4.71527L7.14854 5.77593L8.2092 4.71527ZM4.55031 3.88481L3.48965 2.82415L4.55031 3.88481ZM3.8848 7.37875L2.82414 8.43941L3.8848 7.37875ZM3.8848 4.55032L2.82414 3.48966L3.8848 4.55032ZM5.15978 8.65372L4.09912 9.71438L5.15978 8.65372ZM3.8848 20.8554L2.82414 19.7947L3.8848 20.8554ZM7.37874 24.3493L6.31808 23.2886L7.37874 24.3493ZM4.55031 24.3493L3.48965 25.41L4.55031 24.3493ZM9.18254 22.5455L8.12188 21.4848L9.18254 22.5455ZM23.6303 8.09771L22.5697 7.03705L23.6303 8.09771ZM24.3493 4.55031L23.2886 5.61097L24.3493 4.55031ZM24.3493 7.37874L23.2886 6.31808L24.3493 7.37874ZM20.8554 3.8848L19.7947 2.82414L20.8554 3.8848ZM23.6838 3.8848L24.7445 2.82414L23.6838 3.8848ZM14.4706 -1.5H13.5294V1.5H14.4706V-1.5ZM17.9706 2.80329V2H14.9706V2.80329H17.9706ZM19.7947 2.82414L19.2762 3.34267L21.3975 5.46399L21.916 4.94546L19.7947 2.82414ZM25.41 3.48965L24.7445 2.82414L22.6231 4.94546L23.2886 5.61097L25.41 3.48965ZM24.691 9.15837L25.41 8.4394L23.2886 6.31808L22.5697 7.03705L24.691 9.15837ZM26 10.0294H25.0482V13.0294H26V10.0294ZM29.5 14.4706V13.5294H26.5V14.4706H29.5ZM24.6672 17.9706H26V14.9706H24.6672V17.9706ZM25.41 19.7947L24.3454 18.7301L22.2241 20.8515L23.2886 21.916L25.41 19.7947ZM24.7445 25.41L25.41 24.7445L23.2886 22.6231L22.6231 23.2886L24.7445 25.41ZM18.2856 23.9009L19.7947 25.41L21.916 23.2886L20.4069 21.7796L18.2856 23.9009ZM17.9706 26V24.0264H14.9706V26H17.9706ZM13.5294 29.5H14.4706V26.5H13.5294V29.5ZM10.0294 23.5187V26H13.0294V23.5187H10.0294ZM8.4394 25.41L10.2432 23.6062L8.12188 21.4848L6.31808 23.2886L8.4394 25.41ZM2.82414 24.7444L3.48965 25.41L5.61097 23.2886L4.94546 22.6231L2.82414 24.7444ZM4.42745 18.1914L2.82414 19.7947L4.94546 21.916L6.54877 20.3127L4.42745 18.1914ZM2 17.9706H4.3328V14.9706H2V17.9706ZM-1.5 13.5294V14.4706H1.5V13.5294H-1.5ZM3.97359 10.0294H2V13.0294H3.97359V10.0294ZM2.82414 8.43941L4.09912 9.71438L6.22044 7.59306L4.94546 6.31809L2.82414 8.43941ZM3.48965 2.82415L2.82414 3.48966L4.94546 5.61098L5.61097 4.94547L3.48965 2.82415ZM9.26986 3.65461L8.4394 2.82415L6.31808 4.94547L7.14854 5.77593L9.26986 3.65461ZM10.0294 2V3.33282H13.0294V2H10.0294ZM11.0178 6.37388C12.0965 5.86536 13.0294 4.75951 13.0294 3.33282H10.0294C10.0294 3.35865 10.0222 3.40384 9.97709 3.46779C9.92901 3.53591 9.84748 3.60895 9.73856 3.66029L11.0178 6.37388ZM7.14854 5.77593C8.24455 6.87194 9.83149 6.93313 11.0178 6.37388L9.73856 3.66029C9.62123 3.71561 9.50586 3.72929 9.41933 3.71853C9.33923 3.70858 9.29625 3.68099 9.26986 3.65461L7.14854 5.77593ZM5.61097 4.94547C5.80624 4.7502 6.12282 4.7502 6.31808 4.94547L8.4394 2.82415C7.07257 1.45731 4.85649 1.45731 3.48965 2.82415L5.61097 4.94547ZM4.94546 6.31809C4.7502 6.12282 4.7502 5.80624 4.94546 5.61098L2.82414 3.48966C1.45731 4.85649 1.45731 7.07257 2.82414 8.43941L4.94546 6.31809ZM6.91015 10.8869C7.29205 9.82657 7.14142 8.51405 6.22044 7.59306L4.09912 9.71438C4.09913 9.7144 4.09901 9.71428 4.0988 9.71403C4.09859 9.71379 4.09837 9.71351 4.09817 9.71323C4.09771 9.7126 4.09767 9.71242 4.09797 9.713C4.09851 9.71406 4.10148 9.7202 4.10386 9.7331C4.10903 9.76107 4.10916 9.81058 4.08763 9.87034L6.91015 10.8869ZM3.97359 13.0294C5.41608 13.0294 6.5011 12.0226 6.91015 10.8869L4.08763 9.87034C4.06269 9.9396 4.02148 9.98966 3.98838 10.0154C3.95986 10.0376 3.95577 10.0294 3.97359 10.0294V13.0294ZM1.5 13.5294C1.5 13.2533 1.72386 13.0294 2 13.0294V10.0294C0.0670066 10.0294 -1.5 11.5964 -1.5 13.5294H1.5ZM2 14.9706C1.72386 14.9706 1.5 14.7467 1.5 14.4706H-1.5C-1.5 16.4036 0.067004 17.9706 2 17.9706V14.9706ZM7.13485 16.8462C6.67856 15.8289 5.64991 14.9706 4.3328 14.9706V17.9706C4.30816 17.9706 4.30308 17.9611 4.3208 17.9737C4.34229 17.989 4.37451 18.0225 4.39758 18.0739L7.13485 16.8462ZM6.54877 20.3127C7.52415 19.3373 7.61998 17.9278 7.13485 16.8462L4.39758 18.0739C4.42113 18.1264 4.42302 18.1714 4.41967 18.1949C4.4182 18.2052 4.41629 18.2078 4.41776 18.2048C4.41958 18.201 4.42317 18.1957 4.42745 18.1914L6.54877 20.3127ZM4.94546 22.6231C4.7502 22.4279 4.7502 22.1113 4.94546 21.916L2.82414 19.7947C1.45731 21.1615 1.45731 23.3776 2.82414 24.7444L4.94546 22.6231ZM6.31808 23.2886C6.12282 23.4839 5.80624 23.4839 5.61097 23.2886L3.48965 25.41C4.85649 26.7768 7.07257 26.7768 8.4394 25.41L6.31808 23.2886ZM11.2691 20.9157C10.2724 20.4876 9.00183 20.6049 8.12188 21.4848L10.2432 23.6062C10.1994 23.65 10.15 23.6682 10.1201 23.673C10.1064 23.6751 10.0972 23.6746 10.0926 23.674C10.0879 23.6734 10.0856 23.6725 10.085 23.6722L11.2691 20.9157ZM13.0294 23.5187C13.0294 22.2942 12.2335 21.33 11.2691 20.9157L10.085 23.6722C10.0848 23.6721 10.0839 23.6717 10.0818 23.6701C10.0798 23.6685 10.0745 23.6639 10.0676 23.6542C10.0527 23.6333 10.0294 23.5858 10.0294 23.5187H13.0294ZM13.5294 26.5C13.2533 26.5 13.0294 26.2761 13.0294 26H10.0294C10.0294 27.933 11.5964 29.5 13.5294 29.5V26.5ZM14.9706 26C14.9706 26.2761 14.7467 26.5 14.4706 26.5V29.5C16.4036 29.5 17.9706 27.933 17.9706 26H14.9706ZM17.1131 21.0899C15.9774 21.4989 14.9706 22.5839 14.9706 24.0264H17.9706C17.9706 24.0442 17.9625 24.0401 17.9846 24.0116C18.0103 23.9785 18.0604 23.9373 18.1297 23.9124L17.1131 21.0899ZM20.4069 21.7796C19.486 20.8586 18.1734 20.708 17.1131 21.0899L18.1297 23.9124C18.1894 23.8908 18.2389 23.891 18.2669 23.8961C18.2798 23.8985 18.2859 23.9015 18.287 23.902C18.2876 23.9023 18.2874 23.9023 18.2868 23.9018C18.2865 23.9016 18.2862 23.9014 18.286 23.9012C18.2857 23.901 18.2856 23.9009 18.2856 23.9009L20.4069 21.7796ZM22.6231 23.2886C22.4279 23.4839 22.1113 23.4839 21.916 23.2886L19.7947 25.41C21.1615 26.7768 23.3776 26.7768 24.7445 25.41L22.6231 23.2886ZM23.2886 21.916C23.4839 22.1113 23.4839 22.4279 23.2886 22.6231L25.41 24.7445C26.7768 23.3776 26.7768 21.1615 25.41 19.7947L23.2886 21.916ZM21.6261 16.9822C21.0669 18.1685 21.1281 19.7554 22.2241 20.8515L24.3454 18.7301C24.319 18.7038 24.2914 18.6608 24.2815 18.5807C24.2707 18.4941 24.2844 18.3788 24.3397 18.2614L21.6261 16.9822ZM24.6672 14.9706C23.2405 14.9706 22.1346 15.9035 21.6261 16.9822L24.3397 18.2614C24.3911 18.1525 24.4641 18.071 24.5322 18.0229C24.5962 17.9778 24.6414 17.9706 24.6672 17.9706V14.9706ZM26.5 14.4706C26.5 14.7467 26.2761 14.9706 26 14.9706V17.9706C27.933 17.9706 29.5 16.4036 29.5 14.4706H26.5ZM26 13.0294C26.2761 13.0294 26.5 13.2533 26.5 13.5294H29.5C29.5 11.5964 27.933 10.0294 26 10.0294V13.0294ZM21.8546 10.729C22.318 11.9343 23.4847 13.0294 25.0482 13.0294V10.0294C25.0105 10.0294 24.9516 10.0179 24.8734 9.9575C24.7903 9.89323 24.7066 9.78722 24.6548 9.65241L21.8546 10.729ZM22.5697 7.03705C21.5311 8.07561 21.4052 9.56011 21.8546 10.729L24.6548 9.65241C24.607 9.52828 24.5995 9.41128 24.614 9.3233C24.6276 9.24082 24.6581 9.19127 24.691 9.15837L22.5697 7.03705ZM23.2886 5.61097C23.4839 5.80623 23.4839 6.12282 23.2886 6.31808L25.41 8.4394C26.7768 7.07256 26.7768 4.85649 25.41 3.48965L23.2886 5.61097ZM21.916 4.94546C22.1113 4.7502 22.4279 4.7502 22.6231 4.94546L24.7445 2.82414C23.3776 1.4573 21.1615 1.4573 19.7947 2.82414L21.916 4.94546ZM17.3887 6.19173C18.642 6.69674 20.2651 6.59634 21.3975 5.46399L19.2762 3.34267C19.1643 3.45459 18.8887 3.56177 18.5099 3.40912L17.3887 6.19173ZM14.9706 2.80329C14.9706 4.457 16.1324 5.68553 17.3887 6.19173L18.5099 3.40912C18.3267 3.33531 18.1791 3.2191 18.086 3.09814C17.997 2.98251 17.9706 2.88251 17.9706 2.80329H14.9706ZM13.5294 -1.5C11.5964 -1.5 10.0294 0.0670026 10.0294 2H13.0294C13.0294 1.72386 13.2533 1.5 13.5294 1.5V-1.5ZM14.4706 1.5C14.7467 1.5 14.9706 1.72386 14.9706 2H17.9706C17.9706 0.0670041 16.4036 -1.5 14.4706 -1.5V1.5Z" fill="#2A2238" mask="url(#path-1-inside-1_31_178)"/>
<circle cx="14.4118" cy="13.5882" r="5.42647" stroke="#2A2238" stroke-width="1.5"/>
</svg>
